lg/workplace-icon.svg

<svg viewBox="0 0 256 273" version="1.1" xmlns="http://www.w3.org/2000/svg" preserveAspectRatio="xMidYMid" height="1em" width="1em">
  <g>
    <path d="M256,119.740401 C256,53.5627881 202.337166,0 136.2596,0 C117.938026,0 100.017151,3.60420986 83.2976031,10.8126553 C66.9784967,17.7207564 52.4615082,27.532255 39.94673,40.0470334 C27.4322088,52.4615082 17.6207615,67.078543 10.7126606,83.2976031 C3.60431273,100.117198 0,117.938283 0,136.359903 C0,154.781266 3.60431273,172.602351 10.7126606,189.421946 C17.6207615,205.641006 27.4322088,220.157994 39.94673,232.672772 C52.4615082,245.187294 67.078543,254.998767 83.2976031,261.907614 C100.017151,269.016296 117.938283,272.619503 136.359903,272.619503 C154.080685,272.619503 171.000583,269.214331 186.518805,263.108682 L176.206587,237.077892 C163.892158,241.9835 150.476449,244.686805 136.359903,244.686805 C107.425973,244.686805 80.1941129,233.373353 59.7702828,212.949523 C39.3461955,192.525693 28.0327433,165.293577 28.0327433,136.359903 C28.0327433,107.425973 39.3461955,80.1938557 59.7702828,59.7700256 C80.2941592,39.3461955 107.425973,28.0327433 136.359903,28.0327433 C187.019294,28.0327433 228.067304,69.0810104 228.067304,119.740401 C228.067304,138.362113 222.460858,155.782499 212.849477,170.299488 L189.021504,111.630742 C185.517314,103.020852 181.312544,90.1056322 165.493927,90.1056322 C149.675566,90.1056322 145.470539,103.120899 142.066652,111.630742 L120.140843,165.794323 L90.7064238,91.5073079 L59.7702828,91.5073079 L96.4129158,181.813032 C100.117455,190.923667 104.222179,203.3384 120.140843,203.3384 C136.059507,203.3384 140.064185,190.923667 143.768466,181.813032 L165.493927,128.150198 L187.31969,181.813032 C191.724809,192.926135 196.430325,203.3384 210.947313,203.3384 C221.259275,203.3384 227.766908,196.730463 231.371143,192.42539 C246.789319,172.301956 256,147.072306 256,119.740401 Z" fill="#4326C4"/>
  </g>
</svg>

<svg viewBox="0 0 256 273" xmlns="http://www.w3.org/2000/svg" preserveAspectRatio="xMidYMid" height="1em" width="1em">
  <path d="M256 119.74C256 53.563 202.337 0 136.26 0c-18.322 0-36.243 3.604-52.962 10.813-16.32 6.908-30.836 16.72-43.351 29.234-12.515 12.415-22.326 27.032-29.234 43.25C3.604 100.118 0 117.939 0 136.36s3.604 36.242 10.713 53.062c6.908 16.219 16.72 30.736 29.234 43.25 12.515 12.515 27.132 22.327 43.35 29.236 16.72 7.108 34.641 10.712 53.063 10.712 17.72 0 34.64-3.406 50.159-9.511l-10.312-26.031c-12.315 4.905-25.73 7.609-39.847 7.609-28.934 0-56.166-11.314-76.59-31.737-20.424-20.424-31.737-47.656-31.737-76.59 0-28.934 11.313-56.166 31.737-76.59 20.524-20.424 47.656-31.737 76.59-31.737 50.66 0 91.707 41.048 91.707 91.707a91.392 91.392 0 0 1-15.218 50.56l-23.827-58.67c-3.505-8.61-7.71-21.524-23.528-21.524-15.818 0-20.023 13.015-23.427 21.525l-21.926 54.163-29.435-74.287H59.77l36.643 90.306c3.704 9.11 7.81 21.525 23.728 21.525 15.919 0 19.923-12.414 23.627-21.525l21.726-53.663 21.826 53.663c4.405 11.113 9.11 21.525 23.627 21.525 10.312 0 16.82-6.608 20.424-10.913C246.79 172.302 256 147.072 256 119.74Z" fill="#4326C4"/>
</svg>
